client/public/game_modes/bouncing_ball/frame2.svg

<svg xmlns="http://www.w3.org/2000/svg" width="437" height="483" fill="none"><path fill="#EDEDED" d="M238 40h20v20h-20V40Zm0 20h20v20h-20V60Zm20 20h20v20h-20V80Zm0-20h20v20h-20V60Zm20 20h20v20h-20V80Zm0 20h20v20h-20v-20Zm-20 0h20v20h-20v-20Zm-20-20h20v20h-20V80Zm-20-20h20v20h-20V60Zm0-20h20v20h-20V40Z"/><path stroke="#EDEDED" stroke-width="5" d="M238 40h20v20m-20-20v20m0-20h-20v20m40 0h-20m20 0v20m0-20h20v20m-40-20v20m0-20h-20m40 20h-20m20 0h20m-20 0v20m-20-20v20h20m-20-20h-20V60m60 20v20m0-20h20v20m-20 0h-20m20 0h20m-20 0v20m-20-20v20h20m20-20v20h-20"/><path fill="#949494" d="M118 60h20v20h-20V60ZM98 80h20v20H98V80Zm0 60h20v20H98v-20Zm0 20h20v20H98v-20Zm0 20h20v20H98v-20Zm100 60h20v20h-20v-20Zm60 0h20v20h-20v-20Zm-20 0h20v20h-20v-20Zm-20 0h20v20h-20v-20Zm-40-20h20v20h-20v-20Zm0 20h20v20h-20v-20Zm-20-20h20v20h-20v-20Zm0 20h20v20h-20v-20Zm-20-40h20v20h-20v-20Zm0 20h20v20h-20v-20Zm-20-40h20v20h-20v-20Zm0 20h20v20h-20v-20Zm0-40h20v20h-20v-20Zm-20-40h20v20H98v-20Zm0-20h20v20H98v-20Z"/><path stroke="#949494" stroke-width="5" d="M118 80h20V60h-20v20Zm0 0H98v20m20-20v20m0 0H98m20 0v20m-20-20v20m0 20h20m-20 0v20m0-20v-20m20 20v20m0-20v-20m0 40H98m20 0v20m0-20h20v20m-40-20v20m20 0H98m20 0v20m0-20h20m-40 0v20h20m0 0h20m-20 0v20h20m60 20h20m-20 0v20m0-20v-20h-20m20 20h-20m40 0v20m0-20h20m-20 20h-20m20 0h20m-40 0h-20m80-20h20v20h-20m0-20v20m0-20h-20m20 20h-20m0-20v20m-60-40v20m0-20h-20m20 20v20m0-20h-20m20 20h-20v-20m0-20v20m0-20v-20h-20m20 20h-20m20 20h-20v-20m0-20v20m0-20v-20m-40-60h20"/><path fill="#D9D9D9" d="M138 40h20v20h-20V40Zm40-20h20v20h-20V20Zm0 20h20v20h-20V40Zm20-20h20v20h-20V20Zm40 0h20v20h-20V20Zm20 0h20v20h-20V20Zm0 20h20v20h-20V40Zm20 0h20v20h-20V40Zm0 20h20v20h-20V60Zm20 0h20v20h-20V60Zm0 60h20v20h-20v-20Zm0-20h20v20h-20v-20Zm0 40h20v20h-20v-20Zm0 40h20v20h-20v-20Zm0-100h20v20h-20V80Zm0 80h20v20h-20v-20Zm20-40h20v20h-20v-20Zm0-20h20v20h-20v-20Zm0 40h20v20h-20v-20Zm0-60h20v20h-20V80Zm0 80h20v20h-20v-20Zm-40-20h20v20h-20v-20Zm0-20h20v20h-20v-20Zm0 40h20v20h-20v-20Zm0 40h20v20h-20v-20Zm-20 20h20v20h-20v-20Zm60-40h20v20h-20v-20Zm-20 20h20v20h-20v-20Zm-20 20h20v20h-20v-20Zm-120-20h20v20h-20v-20Zm40 20h20v20h-20v-20Zm-40-60h20v20h-20v-20Zm-20 0h20v20h-20v-20Zm20-20h20v20h-20v-20Zm-20-20h20v20h-20v-20Zm0-20h20v20h-20v-20Zm20 0h20v20h-20v-20Zm-20-20h20v20h-20V80Zm20 0h20v20h-20V80Zm-20-20h20v20h-20V60Zm20 60h20v20h-20v-20Zm0-60h20v20h-20V60Zm-40 20h20v20h-20V80Zm0 60h20v20h-20v-20Zm0-20h20v20h-20v-20Zm0-20h20v20h-20v-20Zm20 40h20v20h-20v-20Zm20 40h20v20h-20v-20Zm-20 0h20v20h-20v-20Zm40 0h20v20h-20v-20Zm0 20h20v20h-20v-20Zm20 0h20v20h-20v-20Zm20 20h20v20h-20v-20Zm20 0h20v20h-20v-20Zm40-40h20v20h-20v-20ZM178 60h20v20h-20V60Zm0 40h20v20h-20v-20Zm0-20h20v20h-20V80Zm0 40h20v20h-20v-20Zm0 40h20v20h-20v-20Zm0-20h20v20h-20v-20Zm20-80h20v20h-20V60Zm0 20h20v20h-20V80Zm0 40h20v20h-20v-20Zm0-20h20v20h-20v-20Zm0 40h20v20h-20v-20Zm0 40h20v20h-20v-20Zm0-20h20v20h-20v-20Zm20-80h20v20h-20V80Zm0 20h20v20h-20v-20Zm0 40h20v20h-20v-20Zm0-20h20v20h-20v-20Zm0 40h20v20h-20v-20Zm0 40h20v20h-20v-20Zm0-20h20v20h-20v-20Zm20-80h20v20h-20v-20Zm0 20h20v20h-20v-20Zm0 40h20v20h-20v-20Zm0-20h20v20h-20v-20Zm0 60h20v20h-20v-20Zm0-20h20v20h-20v-20Zm20-60h20v20h-20v-20Zm0 20h20v20h-20v-20Zm0 40h20v20h-20v-20Zm0 20h20v20h-20v-20Zm0-40h20v20h-20v-20ZM198 40h20v20h-20V40Zm20-20h20v20h-20V20Zm-60 0h20v20h-20V20Zm0 20h20v20h-20V40Z"/><path stroke="#D9D9D9" stroke-width="5" d="M158 40h-20v20m20-20v20m0-20h20m-20 0V20h20m-20 40h-20m20 0v20m0-20h20m-40 0v20m40-60h20m-20 0v20m20-20v20m0-20h20m-20 20h-20m20 0v20m0-20h20m-40 0v20m20 0h-20m20 0v20m0-20h20m-40 0v20m40-60v20m0-20h20m-20 20v20m0-20h20m0-20h20m-20 0v20m20-20v20m0-20h20v20m-20 0h-20m20 0h20m-20 0v20h20m0-20v20m0-20h20v20m-20 0h20m-20 0v20h20m0-20v20m0-20h20v20m-20 0h20m-20 0v20m20-20v20m0-20h20v20m-40 20h20m-20 0v20m0-20v-20m0 20h-20m40 0v20m0-20v-20m0 20h20m-20 20h-20m20 0v20m0-20h20m-40 0v20m0-20h-20m20-40h20m0 0h20m-20 60h-20m20 0v20m0-20h20m-40 0v20m0-20h-20m20 20h20m-20 0v20m0-20h-20m40 0v20m0-20h20m-20 20h-20m20 0h20v-20m-20 20v20h-20m0-20h-20m20 0v20m40-100v20m0-20v-20m0 40v20m0 0v20m-60-40v20m0-20v-20m0 20h-20m20 20v20m0-20h-20m20-40h-20m20 60v20m0-20h-20m20 20v20m0-20h-20m40 20h-20m20 0v20h-20m0-20h-20m20 0v20m-20-20v20m0-20h-20m20 0v-20m20 40h-20m0 0h-20m-80-40h20m-20 0v20h20m-20-20v-20m0 20h-20v-20m40 20v20m0-20v-20m0 20h20m-20 20h20m0 0h20m-20 0v20h20m-20-20v-20m20 20v20m0-20v-20m0 20h20m-20 20h20m-80-80h20m-20 0v20m0-20h-20m20 0v-20m20 20v20m0-20v-20m0 20h20m-20 20h-20m20 0h20m-40 0h-20m0-20v20m0-20v-20m0 20h-20v-20m40 0h20m-20 0v-20m0 20h-20m40 0v-20m0 20h20m-60-20h20m-20 0v20m0-20v-20m0 20h-20m40 0v-20m0 20h20m-40 20h-20m20-40h20m-20 0V80m0 20h-20m40 0h20m-20 0V80m20 20v20m0-20V80m0 20h20m-20 20h20m-60-40h20m-20 0h-20v20m40-20h20m0 0h20m-80 20v20m0 20v-20m80 60v20m0-20v-20m0 20h20m-20 20h20m0 0v-20m0 20h20m0 20v20m0-20v-20M198 80v20m0-20h20m-20 20v20m0-20h20m-20 20v20m0-20h20m-20 20v20m0-20h20m-20 20h20m0-100v20m0 0v20m0-20h20v20m-20 0v20m0-20h20m-20 20v20m0-20h20m-20 20v20m0-20h20m-20 20v20m0-20h20m-20 20h20m0-80v20m0-20h20v20m-20 0v20m0-20h20m-20 20v20m0-20h20m-20 20v20m0-20h20m-20 20v20m0-20h20m-20 20h20m0-80v20m0 0v20m0 0v20m0 0v20"/></svg>

<svg width="437" height="483" viewBox="0 0 437 483" fill="none" xmlns="http://www.w3.org/2000/svg">
<path d="M238 40H258V60H238V40Z" fill="#EDEDED"/>
<path d="M238 60H258V80H238V60Z" fill="#EDEDED"/>
<path d="M258 80H278V100H258V80Z" fill="#EDEDED"/>
<path d="M258 60H278V80H258V60Z" fill="#EDEDED"/>
<path d="M278 80H298V100H278V80Z" fill="#EDEDED"/>
<path d="M278 100H298V120H278V100Z" fill="#EDEDED"/>
<path d="M258 100H278V120H258V100Z" fill="#EDEDED"/>
<path d="M238 80H258V100H238V80Z" fill="#EDEDED"/>
<path d="M218 60H238V80H218V60Z" fill="#EDEDED"/>
<path d="M218 40H238V60H218V40Z" fill="#EDEDED"/>
<path d="M238 40H258V60M238 40V60M238 40H218V60M258 60H238M258 60V80M258 60H278V80M238 60V80M238 60H218M258 80H238M258 80H278M258 80V100M238 80V100H258M238 80H218V60M278 80V100M278 80H298V100M278 100H258M278 100H298M278 100V120M258 100V120H278M298 100V120H278" stroke="#EDEDED" stroke-width="5"/>
<path d="M118 60H138V80H118V60Z" fill="#949494"/>
<path d="M98 80H118V100H98V80Z" fill="#949494"/>
<path d="M98 140H118V160H98V140Z" fill="#949494"/>
<path d="M98 160H118V180H98V160Z" fill="#949494"/>
<path d="M98 180H118V200H98V180Z" fill="#949494"/>
<path d="M198 240H218V260H198V240Z" fill="#949494"/>
<path d="M258 240H278V260H258V240Z" fill="#949494"/>
<path d="M238 240H258V260H238V240Z" fill="#949494"/>
<path d="M218 240H238V260H218V240Z" fill="#949494"/>
<path d="M178 220H198V240H178V220Z" fill="#949494"/>
<path d="M178 240H198V260H178V240Z" fill="#949494"/>
<path d="M158 220H178V240H158V220Z" fill="#949494"/>
<path d="M158 240H178V260H158V240Z" fill="#949494"/>
<path d="M138 200H158V220H138V200Z" fill="#949494"/>
<path d="M138 220H158V240H138V220Z" fill="#949494"/>
<path d="M118 180H138V200H118V180Z" fill="#949494"/>
<path d="M118 200H138V220H118V200Z" fill="#949494"/>
<path d="M118 160H138V180H118V160Z" fill="#949494"/>
<path d="M98 120H118V140H98V120Z" fill="#949494"/>
<path d="M98 100H118V120H98V100Z" fill="#949494"/>
<path d="M118 80H138V60H118V80ZM118 80H98V100M118 80V100M118 100H98M118 100V120M98 100V120M98 140H118M98 140V160M98 140V120M118 140V160M118 140V120M118 160H98M118 160V180M118 160H138V180M98 160V180M118 180H98M118 180V200M118 180H138M98 180V200H118M118 200H138M118 200V220H138M198 240H218M198 240V260M198 240V220H178M198 240H178M218 240V260M218 240H238M218 260H198M218 260H238M198 260H178M258 240H278V260H258M258 240V260M258 240H238M258 260H238M238 240V260M178 220V240M178 220H158M178 240V260M178 240H158M178 260H158V240M158 220V240M158 220V200H138M158 220H138M158 240H138V220M138 200V220M138 200V180M98 120H118" stroke="#949494" stroke-width="5"/>
<path d="M138 40H158V60H138V40Z" fill="#D9D9D9"/>
<path d="M178 20H198V40H178V20Z" fill="#D9D9D9"/>
<path d="M178 40H198V60H178V40Z" fill="#D9D9D9"/>
<path d="M198 20H218V40H198V20Z" fill="#D9D9D9"/>
<path d="M238 20H258V40H238V20Z" fill="#D9D9D9"/>
<path d="M258 20H278V40H258V20Z" fill="#D9D9D9"/>
<path d="M258 40H278V60H258V40Z" fill="#D9D9D9"/>
<path d="M278 40H298V60H278V40Z" fill="#D9D9D9"/>
<path d="M278 60H298V80H278V60Z" fill="#D9D9D9"/>
<path d="M298 60H318V80H298V60Z" fill="#D9D9D9"/>
<path d="M298 120H318V140H298V120Z" fill="#D9D9D9"/>
<path d="M298 100H318V120H298V100Z" fill="#D9D9D9"/>
<path d="M298 140H318V160H298V140Z" fill="#D9D9D9"/>
<path d="M298 180H318V200H298V180Z" fill="#D9D9D9"/>
<path d="M298 80H318V100H298V80Z" fill="#D9D9D9"/>
<path d="M298 160H318V180H298V160Z" fill="#D9D9D9"/>
<path d="M318 120H338V140H318V120Z" fill="#D9D9D9"/>
<path d="M318 100H338V120H318V100Z" fill="#D9D9D9"/>
<path d="M318 140H338V160H318V140Z" fill="#D9D9D9"/>
<path d="M318 80H338V100H318V80Z" fill="#D9D9D9"/>
<path d="M318 160H338V180H318V160Z" fill="#D9D9D9"/>
<path d="M278 140H298V160H278V140Z" fill="#D9D9D9"/>
<path d="M278 120H298V140H278V120Z" fill="#D9D9D9"/>
<path d="M278 160H298V180H278V160Z" fill="#D9D9D9"/>
<path d="M278 200H298V220H278V200Z" fill="#D9D9D9"/>
<path d="M258 220H278V240H258V220Z" fill="#D9D9D9"/>
<path d="M318 180H338V200H318V180Z" fill="#D9D9D9"/>
<path d="M298 200H318V220H298V200Z" fill="#D9D9D9"/>
<path d="M278 220H298V240H278V220Z" fill="#D9D9D9"/>
<path d="M158 200H178V220H158V200Z" fill="#D9D9D9"/>
<path d="M198 220H218V240H198V220Z" fill="#D9D9D9"/>
<path d="M158 160H178V180H158V160Z" fill="#D9D9D9"/>
<path d="M138 160H158V180H138V160Z" fill="#D9D9D9"/>
<path d="M158 140H178V160H158V140Z" fill="#D9D9D9"/>
<path d="M138 120H158V140H138V120Z" fill="#D9D9D9"/>
<path d="M138 100H158V120H138V100Z" fill="#D9D9D9"/>
<path d="M158 100H178V120H158V100Z" fill="#D9D9D9"/>
<path d="M138 80H158V100H138V80Z" fill="#D9D9D9"/>
<path d="M158 80H178V100H158V80Z" fill="#D9D9D9"/>
<path d="M138 60H158V80H138V60Z" fill="#D9D9D9"/>
<path d="M158 120H178V140H158V120Z" fill="#D9D9D9"/>
<path d="M158 60H178V80H158V60Z" fill="#D9D9D9"/>
<path d="M118 80H138V100H118V80Z" fill="#D9D9D9"/>
<path d="M118 140H138V160H118V140Z" fill="#D9D9D9"/>
<path d="M118 120H138V140H118V120Z" fill="#D9D9D9"/>
<path d="M118 100H138V120H118V100Z" fill="#D9D9D9"/>
<path d="M138 140H158V160H138V140Z" fill="#D9D9D9"/>
<path d="M158 180H178V200H158V180Z" fill="#D9D9D9"/>
<path d="M138 180H158V200H138V180Z" fill="#D9D9D9"/>
<path d="M178 180H198V200H178V180Z" fill="#D9D9D9"/>
<path d="M178 200H198V220H178V200Z" fill="#D9D9D9"/>
<path d="M198 200H218V220H198V200Z" fill="#D9D9D9"/>
<path d="M218 220H238V240H218V220Z" fill="#D9D9D9"/>
<path d="M238 220H258V240H238V220Z" fill="#D9D9D9"/>
<path d="M278 180H298V200H278V180Z" fill="#D9D9D9"/>
<path d="M178 60H198V80H178V60Z" fill="#D9D9D9"/>
<path d="M178 100H198V120H178V100Z" fill="#D9D9D9"/>
<path d="M178 80H198V100H178V80Z" fill="#D9D9D9"/>
<path d="M178 120H198V140H178V120Z" fill="#D9D9D9"/>
<path d="M178 160H198V180H178V160Z" fill="#D9D9D9"/>
<path d="M178 140H198V160H178V140Z" fill="#D9D9D9"/>
<path d="M198 60H218V80H198V60Z" fill="#D9D9D9"/>
<path d="M198 80H218V100H198V80Z" fill="#D9D9D9"/>
<path d="M198 120H218V140H198V120Z" fill="#D9D9D9"/>
<path d="M198 100H218V120H198V100Z" fill="#D9D9D9"/>
<path d="M198 140H218V160H198V140Z" fill="#D9D9D9"/>
<path d="M198 180H218V200H198V180Z" fill="#D9D9D9"/>
<path d="M198 160H218V180H198V160Z" fill="#D9D9D9"/>
<path d="M218 80H238V100H218V80Z" fill="#D9D9D9"/>
<path d="M218 100H238V120H218V100Z" fill="#D9D9D9"/>
<path d="M218 140H238V160H218V140Z" fill="#D9D9D9"/>
<path d="M218 120H238V140H218V120Z" fill="#D9D9D9"/>
<path d="M218 160H238V180H218V160Z" fill="#D9D9D9"/>
<path d="M218 200H238V220H218V200Z" fill="#D9D9D9"/>
<path d="M218 180H238V200H218V180Z" fill="#D9D9D9"/>
<path d="M238 100H258V120H238V100Z" fill="#D9D9D9"/>
<path d="M238 120H258V140H238V120Z" fill="#D9D9D9"/>
<path d="M238 160H258V180H238V160Z" fill="#D9D9D9"/>
<path d="M238 140H258V160H238V140Z" fill="#D9D9D9"/>
<path d="M238 200H258V220H238V200Z" fill="#D9D9D9"/>
<path d="M238 180H258V200H238V180Z" fill="#D9D9D9"/>
<path d="M258 120H278V140H258V120Z" fill="#D9D9D9"/>
<path d="M258 140H278V160H258V140Z" fill="#D9D9D9"/>
<path d="M258 180H278V200H258V180Z" fill="#D9D9D9"/>
<path d="M258 200H278V220H258V200Z" fill="#D9D9D9"/>
<path d="M258 160H278V180H258V160Z" fill="#D9D9D9"/>
<path d="M198 40H218V60H198V40Z" fill="#D9D9D9"/>
<path d="M218 20H238V40H218V20Z" fill="#D9D9D9"/>
<path d="M158 20H178V40H158V20Z" fill="#D9D9D9"/>
<path d="M158 40H178V60H158V40Z" fill="#D9D9D9"/>
<path d="M158 40H138V60M158 40V60M158 40H178M158 40V20H178M158 60H138M158 60V80M158 60H178M138 60V80M178 20H198M178 20V40M198 20V40M198 20H218M198 40H178M198 40V60M198 40H218M178 40V60M198 60H178M198 60V80M198 60H218M178 60V80M218 20V40M218 20H238M218 40V60M218 40H238M238 20H258M238 20V40M258 20V40M258 20H278V40M258 40H238M258 40H278M258 40V60H278M278 40V60M278 40H298V60M278 60H298M278 60V80H298M298 60V80M298 60H318V80M298 80H318M298 80V100M318 80V100M318 80H338V100M298 120H318M298 120V140M298 120V100M298 120H278M318 120V140M318 120V100M318 120H338M318 140H298M318 140V160M318 140H338M298 140V160M298 140H278M298 100H318M318 100H338M318 160H298M318 160V180M318 160H338M298 160V180M298 160H278M298 180H318M298 180V200M298 180H278M318 180V200M318 180H338M318 200H298M318 200H338V180M318 200V220H298M298 200H278M298 200V220M338 120V140M338 120V100M338 140V160M338 160V180M278 140V160M278 140V120M278 140H258M278 160V180M278 160H258M278 120H258M278 180V200M278 180H258M278 200V220M278 200H258M298 220H278M298 220V240H278M278 220H258M278 220V240M258 220V240M258 220H238M258 220V200M278 240H258M258 240H238M158 200H178M158 200V220H178M158 200V180M158 200H138V180M178 200V220M178 200V180M178 200H198M178 220H198M198 220H218M198 220V240H218M198 220V200M218 220V240M218 220V200M218 220H238M218 240H238M158 160H178M158 160V180M158 160H138M158 160V140M178 160V180M178 160V140M178 160H198M178 180H158M178 180H198M158 180H138M138 160V180M138 160V140M138 160H118V140M158 140H178M158 140V120M158 140H138M178 140V120M178 140H198M138 120H158M138 120V140M138 120V100M138 120H118M158 120V100M158 120H178M138 140H118M138 100H158M138 100V80M138 100H118M158 100H178M158 100V80M178 100V120M178 100V80M178 100H198M178 120H198M138 80H158M138 80H118V100M158 80H178M178 80H198M118 100V120M118 140V120M198 180V200M198 180V160M198 180H218M198 200H218M218 200V180M218 200H238M238 220V240M238 220V200M198 80V100M198 80H218M198 100V120M198 100H218M198 120V140M198 120H218M198 140V160M198 140H218M198 160H218M218 60V80M218 80V100M218 80H238V100M218 100V120M218 100H238M218 120V140M218 120H238M218 140V160M218 140H238M218 160V180M218 160H238M218 180H238M238 100V120M238 100H258V120M238 120V140M238 120H258M238 140V160M238 140H258M238 160V180M238 160H258M238 180V200M238 180H258M238 200H258M258 120V140M258 140V160M258 160V180M258 180V200" stroke="#D9D9D9" stroke-width="5"/>
</svg>
